X: 4680
T: Boyne Hunt, The
R: reel
M: 4/4
K: Dmajor
A2FA DAFA|DAFA BGEG|A2FA DAFA|A2de fedB|
A2FA DAFA|DAFA BGEG|A2FA DAFA|A2de fed2||
faaf aaaf|ggga bgeg|faaf aaaf|dcde fdd2|
faaf aaaf|ggga bgeg|fffe dcdB|ABde fedB||

